X: 17578
T: Hoban's On 63rd
R: jig
M: 6/8
K: Gmajor
~B3 GBd|ecc Gce|dBG dBG|FGA AGA|
~B3 GBd|ecc Gce|dBG FGA|BGF G3:|
B2d gdB|c2e gdc|B2d gdB|A2f fed|
B2d gdB|c2e gdc|~B3 cAF|AGF G3:|

